dist/img/arrow.svg

<?xml version="1.0" encoding="UTF-8"?>
<svg width="46px" height="46px" viewBox="0 0 46 46" version="1.1" xmlns="http://www.w3.org/2000/svg" xmlns:xlink="http://www.w3.org/1999/xlink">
    <!-- Generator: sketchtool 52.5 (67469) - http://www.bohemiancoding.com/sketch -->
    <title>8F4FB1A2-AA5D-43CA-8BCB-70430CB8E59A</title>
    <desc>Created with sketchtool.</desc>
    <g id="Page-1" stroke="none" stroke-width="1" fill="none" fill-rule="evenodd">
        <g id="desktop" transform="translate(-1196.000000, -722.000000)" fill="#80BA27">
            <path d="M1219,722 C1206.3093,722 1196,732.309296 1196,745 C1196,757.690704 1206.3093,768 1219,768 C1231.6907,768 1242,757.690704 1242,745 C1242,732.309296 1231.6907,722 1219,722 Z M1219,724 C1230.60982,724 1240,733.390176 1240,745 C1240,756.609824 1230.60982,766 1219,766 C1207.39018,766 1198,756.609824 1198,745 C1198,733.390176 1207.39018,724 1219,724 Z M1222.90625,735.96875 C1222.86395,735.976469 1222.8222,735.986907 1222.78125,736 C1222.40814,736.06769 1222.10541,736.340573 1221.99948,736.704679 C1221.89356,737.068785 1222.00267,737.461479 1222.28125,737.71875 L1228.5625,744 L1207,744 C1206.96877,743.998534 1206.93748,743.998534 1206.90625,744 C1206.35397,744.025888 1205.92724,744.49459 1205.95312,745.046875 C1205.97901,745.59916 1206.44772,746.025888 1207,746 L1228.5625,746 L1222.28125,752.28125 C1222.02444,752.538029 1221.92413,752.912314 1222.01812,753.263106 C1222.1121,753.613897 1222.3861,753.887896 1222.73689,753.981882 C1223.08769,754.075868 1223.46197,753.975562 1223.71875,753.71875 L1231.5625,745.84375 C1231.61863,745.807412 1231.67098,745.765535 1231.71875,745.71875 C1231.74133,745.688699 1231.76219,745.6574 1231.78125,745.625 C1231.80299,745.605098 1231.82385,745.584244 1231.84375,745.5625 C1231.88148,745.503457 1231.9129,745.440612 1231.9375,745.375 C1231.94864,745.354537 1231.95906,745.333691 1231.96875,745.3125 C1231.96891,745.302084 1231.96891,745.291666 1231.96875,745.28125 C1231.98071,745.250534 1231.99113,745.219246 1232,745.1875 C1232.01637,745.083977 1232.01637,744.978523 1232,744.875 C1232.00065,744.854172 1232.00065,744.833328 1232,744.8125 C1232.00016,744.802084 1232.00016,744.791666 1232,744.78125 C1231.99031,744.760059 1231.97989,744.739213 1231.96875,744.71875 C1231.96891,744.708334 1231.96891,744.697916 1231.96875,744.6875 C1231.95906,744.666309 1231.94864,744.645463 1231.9375,744.625 C1231.93766,744.614584 1231.93766,744.604166 1231.9375,744.59375 C1231.92781,744.572559 1231.91739,744.551713 1231.90625,744.53125 C1231.89606,744.520604 1231.88565,744.510185 1231.875,744.5 C1231.86531,744.478809 1231.85489,744.457963 1231.84375,744.4375 C1231.80741,744.381369 1231.76554,744.329024 1231.71875,744.28125 L1231.6875,744.28125 C1231.6676,744.259506 1231.64674,744.238652 1231.625,744.21875 L1223.71875,736.28125 C1223.50984,736.058493 1223.21059,735.943399 1222.90625,735.96875 Z" id="Shape" transform="translate(1219.000000, 745.000000) scale(-1, 1) translate(-1219.000000, -745.000000) "></path>
        </g>
    </g>
</svg>

<svg width="46" height="46" viewBox="0 0 46 46" xmlns="http://www.w3.org/2000/svg" xmlns:xlink="http://www.w3.org/1999/xlink"><g id="Page-1" stroke="none" stroke-width="1" fill="none" fill-rule="evenodd"><g id="desktop" transform="translate(-1196 -722)" fill="#80BA27"><path d="M1219 722c-12.69 0-23 10.31-23 23s10.31 23 23 23 23-10.31 23-23-10.31-23-23-23zm0 2c11.61 0 21 9.39 21 21s-9.39 21-21 21-21-9.39-21-21 9.39-21 21-21zm3.906 11.969a1 1 0 0 0-.125.031 1 1 0 0 0-.5 1.719l6.282 6.281H1207a1 1 0 0 0-1.047 1.047c.026.552.495.979 1.047.953h21.563l-6.282 6.281a1.016 1.016 0 1 0 1.438 1.438l7.843-7.875a1 1 0 0 0 .157-.125 1 1 0 0 0 .062-.094 1 1 0 0 0 .063-.063 1 1 0 0 0 .093-.187.62.62 0 0 0 .032-.063v-.03a1 1 0 0 0 .031-.095 1 1 0 0 0 0-.312 1.002 1.002 0 0 0 0-.094 1.003 1.003 0 0 0-.031-.062v-.032a1.003 1.003 0 0 0-.032-.062v-.031a1.003 1.003 0 0 0-.03-.063 1 1 0 0 0-.032-.031 1.003 1.003 0 0 0-.031-.063 1 1 0 0 0-.125-.156h-.032a1 1 0 0 0-.062-.062l-7.906-7.938a1 1 0 0 0-.813-.312z" id="Shape" transform="matrix(-1 0 0 1 2438 0)"/></g></g></svg>
